X:2025
T:Buttered Peas
R:Polka
C:Trad.
O:England
M:4/4
L:1/8
Q:1/4=180
K:D
A"D"G|FG A2 "G"A2 F2|GA "D"B2 B2 G2|F"Em"G A2 "A"A2 F2|"D"G2 E2 E2 A"G"G|
FG A2 "D"A2 F2|"A"GA "D"B2 B2 G2|F"D"G A2 E3 G|"G"F2 D2 D2:|
|:A"D"G|FGA"A"B A2 Bc|"D"dcde "G"d3 G|FG "D"A2 A2 "A"F2|
G2 "D"E2 E2 AG|FGAB A2 Bc|dc de d3 G|FG A2 E3 G|F2 D2 D2:|

